!!!COM: Robert Schumann
!!!CNT: Deutsch
!!!TXO: Deutsch
!!!OTL: Lieb' Liebchen, leg's Ha2ndchen
!!!LYR: Heine
!!!OPR: Liederkreis
!!!OPS: Op.24
!!!ONM: No.
!!!ENC: Ben Fuhrman
!!!YOR: Schumann Lieder - Max Friedlaender, ed.,
!!!YOR: New York: C. F. Peters, Vol. 1
!!!ODT: 1840/
!!NB: Vocal melody and text only encoded.
!!NB: First instance of melodic material only encoded.
**kern	**silbe
*clefG2	*
*k[f#]	*
*M2/4	*
!!created: 6/2/06 13:25
!!proofed and posted: 6/2/06 13:25
!!edit time: 20 minutes
=	=
4r	.
{4B	{Lieb'
=1	=1
4e	Lieb-
8f#	-chen,
8f#	leg's
=2	=2
4g	Ha2nd-
8a	-chen
8a	aufs
=3	=3
4.b	Her-
8cc	-ze
=4	=4
4.b}	mein,}
{8b	{ach
=5	=5
4ee	ho2rst
8b	du,
8b	wie's
=6	=6
4ee	po-
8b	-chet
8b	im
=7	=7
(4cc	Ka2m-
8b)	|
8g	-mer-
=8	=8
4.f#}	-lein?}
{8fn	{Da
=9	=9
4fn	hau-
8fn	-set
8fn	ein
=10	=10
6fn	Zim-
6fn	-mer-
6fn	-mann
=11	=11
4.g-	schlimm
8g-	und
=12	=12
4.g-}	arg,}
{8f#	{der
=13	=13
4f#	zim-
8f#	-mert
8g#	mir
=14	=14
(8a	ei-
8cc	|
8b)	|
8a}	-nen}
!! rest to measure 16
=16	=16
{4g	{to-
4f#	-ten-
=17	=17
4e}	-sarg.}
4r	.
!! rest to measure 20
=20	=20
4r	.
8r	.
{8B	{Es
=21	=21
4e	ha2m-
8f#	-mert
8f#	und
=22	=22
4g	klop-
8a	-fet
8a	-bei
=23	=23
4b	Tag
8cc	und
8cc	bei
=24	=24
4.b}	Nacht,}
{8b	{es
=25	=25
4ee	hat
8b	mich
8b	schon
=26	=26
4e	la2ngst
8b	um
8b	den
=27	=27
(4cc	Schlaf
8b)	|
8f	ge-
=28	=28
4.f#}	-bracht.}
{8fn	{Ach
=29	=29
6fn	spu-
6fn	-tet
6fn	euch,
=30	=30
4.fn	Mei-
8fn	-ster
=31	=31
4.g-	Zim-
8g-	-mer-
=32	=32
4.g-}	-mann,}
{8f#	{da-
=33	=33
4f#	-mit
(8f#	ich
8g#)	|
=34	=34
(8a	bal-
8cc	|
8b)	|
8a}	-de}
!! rest to measure 36
=36	=36
{4g	{schla-
4f#	-fen
=37	=37
4e}	kann.}
4r	.
==	==
*-	*-
